X: 30954
T: Ownie Davis'
R: reel
M: 4/4
K: Dmixolydian
|:D3d cAAB|cdde cAGE|D2de cAAB|cAGE DdAD|
E/F/G AB cAAB|cded d^cAg|fd f/e/d dcAB|1 cAGE A/c/A GE:|2 cAGE EDdc||
Adde fefg|afge fae^c|Adde fd f/e/d|cAAG EF D2|
Adde fd e/f/g|afge defg|afge fd f/e/d|cAAG EAGE|
Ddde fdfg|afge fae^c|Adde fd f/e/d|cAAG EF D2|
Adde fd e/f/g|afge defg|afge fd f/e/d|^cAAG EAGE||

